svg/u1f3db.svg

<svg viewBox="0 0 128 128" xmlns="http://www.w3.org/2000/svg">
  <path d="M63.83,4.06C62.1,3.89,8.06,35.62,6.55,36.44c-2.45,1.32-2.38,4.6,0.32,4.92s6.82,0.32,6.82,0.32 l48.88,4.44l50.62-4.28c0,0,3.81,0.1,5.08,0c2.06-0.16,3.96-2.24,0.95-5.24C115.69,33.08,65.42,4.22,63.83,4.06z" fill="#97AEC0"/>
  <path d="M9.39,115.24c0,0-0.03-3.81,0-5.13c0.03-1.17,0.83-1.11,2.32-1.15c1.51-0.04,2.37,0,2.37,0 l51.69-15.28l46.88,15.28c0,0,2.09,0.07,3.26,0.07c1.16,0,2.05,0.15,2.05,1.43s0,4.66,0,4.66s3.03,0,3.84,0s0.93,0.58,0.93,1.86 s0,4.78,0,5.59s-0.47,1.28-1.86,1.28s-112.87,0-114.03,0s-1.86-0.47-1.86-1.63c0-1.16,0-4.43,0-5.59c0-1.16,0.58-1.28,1.63-1.28 S9.39,115.24,9.39,115.24z" fill="#97AEC0"/>
  <path d="M4.97,117.71l117.75-0.05c0,0,0.03-0.96,0.01-1.69c-0.02-0.92-0.73-0.87-1.33-0.88 c-1.37-0.03-3.45-0.03-3.45-0.03l-0.01-1.2L9.38,113.84l0.01,1.4c0,0-1.96,0.05-3.64,0.08c-0.53,0.01-0.77,0.5-0.8,1.06 C4.92,117,4.97,117.71,4.97,117.71z" fill="#647584"/>
  <polygon points="12.14,41.65 12.14,49.71 114.48,49.97 114.51,41.84 64.49,41.38 " fill="#647584"/>
  <path d="M7.81,38.76c0.22,0.6,28.1,0.44,56.08,0.4c27.34-0.04,53.53,0.4,53.72-0.06 c0.25-0.61-12.36-8.8-25.99-16.82S64.36,6.37,63.75,6.52C62.54,6.82,7.4,37.65,7.81,38.76z" fill="#CDDFEE"/>
  <path d="M63.81,12.74C63.37,12.63,25.96,33.1,26.16,33.6c0.1,0.26,19.47,0.07,38.22,0.04 c17.73-0.03,35.53,0.15,35.67-0.1C100.36,33.03,64.22,12.84,63.81,12.74z" fill="#97AEC0"/>
  <path d="M12.14,48.96l0.05,4.74l3.17,1.83c0,0-0.3,2.63,0.4,4.35s1.41,2.12,1.92,2.53s0.51,0.91,0.51,0.91 l-0.15,38.37c0,0-2.58,2.35-3.38,3.87c-0.81,1.52-0.61,3.44-0.61,3.44h98.62c0,0,0.3-2.02-0.2-3.44c-0.51-1.41-2.63-2.02-2.63-2.02 V62.4c0,0,2.12-1.52,2.43-3.13c0.3-1.62,0.1-4.65,0.1-4.65l2.16-1.09l-0.02-4.44L12.14,48.96z" fill="#CDDFEE"/>
  <polygon points="24.69,43.13 16.85,43.14 16.82,47.18 24.69,47.21 " fill="#97AEC0"/>
  <polygon points="36.31,42.98 28.74,43.12 28.74,47.23 36.31,47.12 " fill="#97AEC0"/>
  <polygon points="47.12,43.09 40.09,43.1 40.09,47.26 47.12,47.28 " fill="#97AEC0"/>
  <polygon points="75.73,43.05 52.92,43.09 52.92,47.29 75.64,47.36 " fill="#97AEC0"/>
  <polygon points="87.87,43.04 80.56,43.05 80.39,47.37 87.71,47.39 " fill="#97AEC0"/>
  <g>
    <polygon points="100.04,43.02 92.61,43.03 92.53,47.41 99.97,47.43 " fill="#97AEC0"/>
    <polygon points="104.19,43.01 104.04,47.44 110.88,47.46 110.88,43 " fill="#97AEC0"/>
  </g>
  <path d="M16.34,61.05l94.84,0.1c0,0-0.02,0.92-0.7,1.55c-0.57,0.52-0.64,1.11-0.64,1.11l-91.66,0.14 c0,0-0.18-0.63-0.85-1.41C16.87,62,16.34,61.05,16.34,61.05z" fill="#97AEC0"/>
  <path d="M12.17,53.28c0,0-0.23,1.25,0.58,1.94c0.81,0.69,1.5,0.73,3.65,0.67s95.53-0.05,96.61-0.16 c1.08-0.11,1.46-0.95,1.48-1.3c0.02-0.27,0.03-1.2,0.03-1.2L12.17,53.28z" fill="#97AEC0"/>
  <path d="M18.01,100.98c0,0-0.64,0.71-1.03,1.22s-1,1.55-1,1.55l95,0.26c0,0-0.66-0.83-0.91-1.4 c-0.27-0.61-0.24-1.26-0.24-1.26L18.01,100.98z" fill="#97AEC0"/>
  <path d="M33.75,55.83c0,0,0.03,3.18-0.59,4.51c-0.62,1.31-1.46,2.1-1.46,2.1l0.08,39.6 c0,0,1.95,2.07,2.39,3.31c0.44,1.24,0.37,3.65,0.37,3.65h6.61c0,0-0.17-3.03,0.71-4.44c0.88-1.41,2.03-2.56,2.03-2.56l-0.09-39.38 c0,0-1.06-1.59-1.41-2.91C42.03,58.39,42,55.85,42,55.85L33.75,55.83z" fill="#54636E"/>
  <path d="M59.68,55.84c0,0,0.09,2.99-0.53,4.4c-0.62,1.41-1.41,2.36-1.41,2.36l-0.36,38.43 c0,0,2.12,1.94,2.74,3.27c0.62,1.32,0.54,4.69,0.54,4.69l7.19,0.01c0,0-0.05-3.38,0.48-4.71s2.3-2.65,2.3-2.65l-0.17-38.86 c0,0-1.42-0.96-1.86-2.81c-0.44-1.85-0.35-4.17-0.35-4.17L59.68,55.84z" fill="#54636E"/>
  <path d="M86.26,55.82l7.88-0.05c0,0-0.12,2.26,0.5,4.2c0.62,1.94,2.03,3.07,2.03,3.07l-0.08,38.69 c0,0-1.24,0.71-2.12,2.3c-0.88,1.59-0.74,4.96-0.74,4.96h-6.99c0,0,0.33-3.44-0.39-5.05c-0.4-0.9-2.21-2.38-2.21-2.38l0.11-38.57 c0,0,1.48-1.87,1.74-3.19C86.26,58.48,86.26,55.82,86.26,55.82z" fill="#54636E"/>
</svg>

<svg viewBox="0 0 128 128" xmlns="http://www.w3.org/2000/svg">
  <defs/>
  <path d="M63.83,4.06 C62.1,3.89 8.06,35.62 6.55,36.44 C4.1,37.76 4.17,41.04 6.87,41.36 C9.57,41.68 13.69,41.68 13.69,41.68 L62.57,46.12 L113.19,41.84 C113.19,41.84 117,41.94 118.27,41.84 C120.33,41.68 122.23,39.6 119.22,36.6 C115.69,33.08 65.42,4.22 63.83,4.06 Z" fill="#97AEC0"/>
  <path d="M9.39,115.24 C9.39,115.24 9.36,111.43 9.39,110.11 C9.42,108.94 10.22,109 11.71,108.96 C13.22,108.92 14.08,108.96 14.08,108.96 L65.77,93.68 L112.65,108.96 C112.65,108.96 114.74,109.03 115.91,109.03 C117.07,109.03 117.96,109.18 117.96,110.46 C117.96,111.74 117.96,115.12 117.96,115.12 C117.96,115.12 120.99,115.12 121.8,115.12 C122.61,115.12 122.73,115.7 122.73,116.98 C122.73,118.26 122.73,121.76 122.73,122.57 C122.73,123.38 122.26,123.85 120.87,123.85 C119.48,123.85 8,123.85 6.84,123.85 C5.68,123.85 4.98,123.38 4.98,122.22 C4.98,121.06 4.98,117.79 4.98,116.63 C4.98,115.47 5.56,115.35 6.61,115.35 C7.66,115.35 9.39,115.24 9.39,115.24 Z" fill="#97AEC0"/>
  <path d="M4.97,117.71 L122.72,117.66 C122.72,117.66 122.75,116.7 122.73,115.97 C122.71,115.05 122,115.1 121.4,115.09 C120.03,115.06 117.95,115.06 117.95,115.06 L117.94,113.86 L9.38,113.84 L9.39,115.24 C9.39,115.24 7.43,115.29 5.75,115.32 C5.22,115.33 4.98,115.82 4.95,116.38 C4.92,117 4.97,117.71 4.97,117.71 Z" fill="#647584"/>
  <path d="M12.14,41.65 L12.14,49.71 L114.48,49.97 L114.51,41.84 L64.49,41.38 Z" fill="#647584"/>
  <path d="M7.81,38.76 C8.03,39.36 35.91,39.2 63.89,39.16 C91.23,39.12 117.42,39.56 117.61,39.1 C117.86,38.49 105.25,30.3 91.62,22.28 C77.99,14.26 64.36,6.37 63.75,6.52 C62.54,6.82 7.4,37.65 7.81,38.76 Z" fill="#CDDFEE"/>
  <path d="M63.81,12.74 C63.37,12.63 25.96,33.1 26.16,33.6 C26.26,33.86 45.63,33.67 64.38,33.64 C82.11,33.61 99.91,33.79 100.05,33.54 C100.36,33.03 64.22,12.84 63.81,12.74 Z" fill="#97AEC0"/>
  <path d="M12.14,48.96 L12.19,53.7 L15.36,55.53 C15.36,55.53 15.06,58.16 15.76,59.88 C16.46,61.6 17.17,62 17.68,62.41 C18.19,62.82 18.19,63.32 18.19,63.32 L18.04,101.69 C18.04,101.69 15.46,104.04 14.66,105.56 C13.85,107.08 14.05,109 14.05,109 L112.67,109 C112.67,109 112.97,106.98 112.47,105.56 C111.96,104.15 109.84,103.54 109.84,103.54 L109.84,62.4 C109.84,62.4 111.96,60.88 112.27,59.27 C112.57,57.65 112.37,54.62 112.37,54.62 L114.53,53.53 L114.51,49.09 L12.14,48.96 Z" fill="#CDDFEE"/>
  <path d="M24.69,43.13 L16.85,43.14 L16.82,47.18 L24.69,47.21 Z" fill="#97AEC0"/>
  <path d="M36.31,42.98 L28.74,43.12 L28.74,47.23 L36.31,47.12 Z" fill="#97AEC0"/>
  <path d="M47.12,43.09 L40.09,43.1 L40.09,47.26 L47.12,47.28 Z" fill="#97AEC0"/>
  <path d="M75.73,43.05 L52.92,43.09 L52.92,47.29 L75.64,47.36 Z" fill="#97AEC0"/>
  <path d="M87.87,43.04 L80.56,43.05 L80.39,47.37 L87.71,47.39 Z" fill="#97AEC0"/>
  <path d="M100.04,43.02 L92.61,43.03 L92.53,47.41 L99.97,47.43 Z" fill="#97AEC0"/>
  <path d="M104.19,43.01 L104.04,47.44 L110.88,47.46 L110.88,43 Z" fill="#97AEC0"/>
  <path d="M16.34,61.05 L111.18,61.15 C111.18,61.15 111.16,62.07 110.48,62.7 C109.91,63.22 109.84,63.81 109.84,63.81 L18.18,63.95 C18.18,63.95 18,63.32 17.33,62.54 C16.87,62 16.34,61.05 16.34,61.05 Z" fill="#97AEC0"/>
  <path d="M12.17,53.28 C12.17,53.28 11.94,54.53 12.75,55.22 C13.56,55.91 14.25,55.95 16.4,55.89 C18.55,55.83 111.93,55.84 113.01,55.73 C114.09,55.62 114.47,54.78 114.49,54.43 C114.51,54.16 114.52,53.23 114.52,53.23 L12.17,53.28 Z" fill="#97AEC0"/>
  <path d="M18.01,100.98 C18.01,100.98 17.37,101.69 16.98,102.2 C16.59,102.71 15.98,103.75 15.98,103.75 L110.98,104.01 C110.98,104.01 110.32,103.18 110.07,102.61 C109.8,102 109.83,101.35 109.83,101.35 L18.01,100.98 Z" fill="#97AEC0"/>
  <path d="M33.75,55.83 C33.75,55.83 33.78,59.01 33.16,60.34 C32.54,61.65 31.7,62.44 31.7,62.44 L31.78,102.04 C31.78,102.04 33.73,104.11 34.17,105.35 C34.61,106.59 34.54,109 34.54,109 L41.15,109 C41.15,109 40.98,105.97 41.86,104.56 C42.74,103.15 43.89,102 43.89,102 L43.8,62.62 C43.8,62.62 42.74,61.03 42.39,59.71 C42.03,58.39 42,55.85 42,55.85 L33.75,55.83 Z" fill="#54636E"/>
  <path d="M59.68,55.84 C59.68,55.84 59.77,58.83 59.15,60.24 C58.53,61.65 57.74,62.6 57.74,62.6 L57.38,101.03 C57.38,101.03 59.5,102.97 60.12,104.3 C60.74,105.62 60.66,108.99 60.66,108.99 L67.85,109 C67.85,109 67.8,105.62 68.33,104.29 C68.86,102.96 70.63,101.64 70.63,101.64 L70.46,62.78 C70.46,62.78 69.04,61.82 68.6,59.97 C68.16,58.12 68.25,55.8 68.25,55.8 L59.68,55.84 Z" fill="#54636E"/>
  <path d="M86.26,55.82 L94.14,55.77 C94.14,55.77 94.02,58.03 94.64,59.97 C95.26,61.91 96.67,63.04 96.67,63.04 L96.59,101.73 C96.59,101.73 95.35,102.44 94.47,104.03 C93.59,105.62 93.73,108.99 93.73,108.99 L86.74,108.99 C86.74,108.99 87.07,105.55 86.35,103.94 C85.95,103.04 84.14,101.56 84.14,101.56 L84.25,62.99 C84.25,62.99 85.73,61.12 85.99,59.8 C86.26,58.48 86.26,55.82 86.26,55.82 Z" fill="#54636E"/>
</svg>
